src/assets/icons/planner-icon.svg

<svg width="22" height="23" viewBox="0 0 22 23" fill="none" xmlns="http://www.w3.org/2000/svg">
<path d="M2.32222 23C1.68361 23 1.13692 22.7748 0.682153 22.3244C0.227384 21.874 0 21.3325 0 20.7V4.6C0 3.9675 0.227384 3.42604 0.682153 2.97563C1.13692 2.52521 1.68361 2.3 2.32222 2.3H3.48333V1.19209e-07H5.80556V2.3H16.1944V1.19209e-07H18.5167V2.3H19.6778C20.3164 2.3 20.8631 2.52521 21.3178 2.97563C21.7726 3.42604 22 3.9675 22 4.6V20.7C22 21.3325 21.7726 21.874 21.3178 22.3244C20.8631 22.7748 20.3164 23 19.6778 23H2.32222ZM2.32222 20.7H19.6778V9.2H2.32222V20.7ZM2.32222 6.9H19.6778V4.6H2.32222V6.9ZM10.9389 13.8C10.6099 13.8 10.3341 13.6898 10.1116 13.4694C9.88905 13.249 9.77778 12.9758 9.77778 12.65C9.77778 12.3242 9.88905 12.051 10.1116 11.8306C10.3341 11.6102 10.6099 11.5 10.9389 11.5C11.2679 11.5 11.5436 11.6102 11.7662 11.8306C11.9887 12.051 12.1 12.3242 12.1 12.65C12.1 12.9758 11.9887 13.249 11.7662 13.4694C11.5436 13.6898 11.2679 13.8 10.9389 13.8ZM5.80556 13.8C5.47657 13.8 5.20081 13.6898 4.97826 13.4694C4.75572 13.249 4.64444 12.9758 4.64444 12.65C4.64444 12.3242 4.75572 12.051 4.97826 11.8306C5.20081 11.6102 5.47657 11.5 5.80556 11.5C6.13454 11.5 6.4103 11.6102 6.63285 11.8306C6.85539 12.051 6.96667 12.3242 6.96667 12.65C6.96667 12.9758 6.85539 13.249 6.63285 13.4694C6.4103 13.6898 6.13454 13.8 5.80556 13.8ZM16.1944 13.8C15.8655 13.8 15.5897 13.6898 15.3672 13.4694C15.1446 13.249 15.0333 12.9758 15.0333 12.65C15.0333 12.3242 15.1446 12.051 15.3672 11.8306C15.5897 11.6102 15.8655 11.5 16.1944 11.5C16.5234 11.5 16.7992 11.6102 17.0217 11.8306C17.2443 12.051 17.3556 12.3242 17.3556 12.65C17.3556 12.9758 17.2443 13.249 17.0217 13.4694C16.7992 13.6898 16.5234 13.8 16.1944 13.8ZM10.9389 18.4C10.6099 18.4 10.3341 18.2898 10.1116 18.0694C9.88905 17.849 9.77778 17.5758 9.77778 17.25C9.77778 16.9242 9.88905 16.651 10.1116 16.4306C10.3341 16.2102 10.6099 16.1 10.9389 16.1C11.2679 16.1 11.5436 16.2102 11.7662 16.4306C11.9887 16.651 12.1 16.9242 12.1 17.25C12.1 17.5758 11.9887 17.849 11.7662 18.0694C11.5436 18.2898 11.2679 18.4 10.9389 18.4ZM5.80556 18.4C5.47657 18.4 5.20081 18.2898 4.97826 18.0694C4.75572 17.849 4.64444 17.5758 4.64444 17.25C4.64444 16.9242 4.75572 16.651 4.97826 16.4306C5.20081 16.2102 5.47657 16.1 5.80556 16.1C6.13454 16.1 6.4103 16.2102 6.63285 16.4306C6.85539 16.651 6.96667 16.9242 6.96667 17.25C6.96667 17.5758 6.85539 17.849 6.63285 18.0694C6.4103 18.2898 6.13454 18.4 5.80556 18.4ZM16.1944 18.4C15.8655 18.4 15.5897 18.2898 15.3672 18.0694C15.1446 17.849 15.0333 17.5758 15.0333 17.25C15.0333 16.9242 15.1446 16.651 15.3672 16.4306C15.5897 16.2102 15.8655 16.1 16.1944 16.1C16.5234 16.1 16.7992 16.2102 17.0217 16.4306C17.2443 16.651 17.3556 16.9242 17.3556 17.25C17.3556 17.5758 17.2443 17.849 17.0217 18.0694C16.7992 18.2898 16.5234 18.4 16.1944 18.4Z" fill="#FF8EB1"/>
</svg>

<svg xmlns="http://www.w3.org/2000/svg" width="22" height="23" fill="none" stroke="currentColor" viewBox="0 0 22 23"><path fill="currentColor" d="M2.322 23a2.25 2.25 0 0 1-1.64-.676A2.2 2.2 0 0 1 0 20.7V4.6q0-.949.682-1.624a2.25 2.25 0 0 1 1.64-.676h1.161V0h2.323v2.3h10.388V0h2.323v2.3h1.16q.96 0 1.64.676.684.675.683 1.624v16.1q0 .95-.682 1.624a2.25 2.25 0 0 1-1.64.676zm0-2.3h17.356V9.2H2.322zm0-13.8h17.356V4.6H2.322zm8.617 6.9a1.13 1.13 0 0 1-.827-.33 1.1 1.1 0 0 1-.334-.82q0-.489.334-.82.333-.33.827-.33t.827.33.334.82-.334.82a1.13 1.13 0 0 1-.827.33m-5.133 0a1.13 1.13 0 0 1-.828-.33 1.1 1.1 0 0 1-.334-.82q0-.489.334-.82t.828-.33.827.33.334.82-.334.82a1.13 1.13 0 0 1-.827.33m10.388 0q-.492 0-.827-.33a1.1 1.1 0 0 1-.334-.82q0-.489.334-.82t.827-.33.828.33.334.82-.334.82a1.13 1.13 0 0 1-.828.33m-5.255 4.6a1.13 1.13 0 0 1-.827-.33 1.1 1.1 0 0 1-.334-.82q0-.489.334-.82.333-.33.827-.33t.827.33q.334.331.334.82t-.334.82a1.13 1.13 0 0 1-.827.33m-5.133 0a1.13 1.13 0 0 1-.828-.33 1.1 1.1 0 0 1-.334-.82q0-.489.334-.82t.828-.33.827.33.334.82-.334.82a1.13 1.13 0 0 1-.827.33m10.388 0q-.492 0-.827-.33a1.1 1.1 0 0 1-.334-.82q0-.489.334-.82t.827-.33.828.33.334.82-.334.82a1.13 1.13 0 0 1-.828.33"/></svg>
